X: 32475
T: Plaid Mantle, The
R: reel
M: 4/4
K: Dmajor
AG|FEDE FGAF|GBAG FDDE|FEDE FGAg|fdec dcAG|
FEDE FGAF|GBAG FDDE|FEDE FGAg|fdec dcAG|faec d2||
de|fedc dcAF|GBAG FDDg|fdec dcAg|faec d2de|
fedc dcAF|GBAG FDDE|FEDE FGAg|faec d2||

